Sources/FrostedUI/Resources/Icons.xcassets/upinTiltedFilled20.imageset/upin-tilted-filled-20.svg

<svg width="20" height="20" viewBox="0 0 20 20" fill="none" xmlns="http://www.w3.org/2000/svg" data-fui-icon="true">
  <path
    d="M1.21973 1.21973C1.51262 0.926834 1.98738 0.926833 2.28027 1.21973L18.7803 17.7197C19.0731 18.0126 19.0731 18.4874 18.7803 18.7803C18.4874 19.0731 18.0126 19.0731 17.7197 18.7803L14.1529 15.2134C13.9928 15.0534 13.72 15.1214 13.6538 15.3379L13.4043 16.1543C12.8404 17.9919 10.5226 18.5687 9.16309 17.21L6.71893 14.7658C6.60179 14.6487 6.41187 14.6486 6.2947 14.7658L3.63379 17.4258C3.34103 17.7184 2.86614 17.7182 2.57324 17.4258C2.28044 17.1329 2.28046 16.6581 2.57324 16.3652L5.23322 13.7053C5.35036 13.5881 5.35038 13.3982 5.23326 13.281L2.78906 10.8359C1.42989 9.4764 2.00675 7.15845 3.84473 6.59473L4.66044 6.34378C4.87653 6.27731 4.94423 6.00478 4.78437 5.84491L1.21973 2.28027C0.926833 1.98738 0.926833 1.51262 1.21973 1.21973ZM10.5371 2.39062C11.5328 1.39535 13.1468 1.39547 14.1426 2.39062L17.6084 5.85645C18.6033 6.85222 18.6036 8.46632 17.6084 9.46191L15.3274 11.7429C15.2102 11.8601 15.0203 11.8601 14.9031 11.7429L8.25608 5.09592C8.13892 4.97876 8.13892 4.78881 8.25608 4.67166L10.5371 2.39062Z"
    fill="currentColor"
  />
</svg>

<svg xmlns="http://www.w3.org/2000/svg" width="20" height="20" fill="none" data-fui-icon="true" viewBox="0 0 20 20"><path fill="currentColor" d="M1.22 1.22a.75.75 0 0 1 1.06 0l16.5 16.5a.75.75 0 0 1-1.06 1.06l-3.567-3.567a.3.3 0 0 0-.5.125l-.249.816c-.564 1.838-2.881 2.415-4.24 1.056l-2.445-2.444a.3.3 0 0 0-.424 0l-2.661 2.66a.75.75 0 0 1-1.06-1.06l2.66-2.66a.3.3 0 0 0 0-.425l-2.445-2.445c-1.36-1.36-.782-3.678 1.056-4.241l.815-.251a.3.3 0 0 0 .124-.5L1.22 2.28a.75.75 0 0 1 0-1.06m9.317 1.17a2.55 2.55 0 0 1 3.606 0l3.465 3.466a2.55 2.55 0 0 1 0 3.606l-2.28 2.28a.3.3 0 0 1-.425 0L8.256 5.097a.3.3 0 0 1 0-.424z"/></svg>
